icon-themes/colibre_svg/cmd/lc_renametable.svg

<svg viewBox="0 0 24 24" xmlns="http://www.w3.org/2000/svg"><path d="m3 3v18h9.283203c.350348-.592057.990063-1 1.716797-1h2v-6h-2.035156c-1.071781 0-1.964844-.893061-1.964844-1.964844v-.07031c0-1.071783.893063-1.964846 1.964844-1.964846h7.035156v-7z" fill="#fff"/><path d="m2 2v1 3 15c0 .554.446 1 1 1h9c0-.363969.107739-.703481.283203-1h-3.283203v-3h6v2h1v-2-1-3h-1v3h-6v-3h4.964844c-.721108 0-1.353574-.409028-1.695313-1h-3.269531v-3h4.964844 1.035156 1 5 1v-4-3-1h-1-18zm1 4h5v3h-5zm6 0h6v3h-6zm7 0h5v3h-5zm-13 4h5v3h-5zm0 4h5v3h-5zm0 4h5v3h-5z" fill="#808080"/><g fill="#4d82b8"><path d="m13.964844 11c-.534081 0-.964844.430763-.964844.964844v.070312c0 .534081.430763.964844.964844.964844h3.035156v8h-3c-.554 0-1 .446-1 1s.446 1 1 1h8c.554 0 1-.446 1-1s-.446-1-1-1h-3v-8h3.035156c.534081 0 .964844-.430763.964844-.964844v-.070312c0-.534081-.430763-.964844-.964844-.964844z"/><path d="m2 2h20v4h-20z"/></g></svg>

<svg xmlns="http://www.w3.org/2000/svg" viewBox="0 0 24 24">
 <path d="m 3,3 v 18 h 9.283203 C 12.633551,20.407943 13.273266,20 14,20 h 2 V 14 H 13.964844 C 12.893063,14 12,13.106939 12,12.035156 v -0.07031 C 12,10.893063 12.893063,10 13.964844,10 H 21 V 3 Z" fill="#ffffff"/>
 <path d="m 2,2 v 1 3 15 c 0,0.554 0.446,1 1,1 h 9 c 0,-0.363969 0.107739,-0.703481 0.283203,-1 H 9 v -3 h 6 v 2 h 1 v -2 -1 -3 h -1 v 3 H 9 v -3 h 4.964844 C 13.243736,14 12.61127,13.590972 12.269531,13 H 9 V 10 H 13.964844 15 h 1 5 1 V 6 3 2 H 21 3 Z M 3,6 H 8 V 9 H 3 Z m 6,0 h 6 V 9 H 9 Z m 7,0 h 5 V 9 H 16 Z M 3,10 h 5 v 3 H 3 Z m 0,4 h 5 v 3 H 3 Z m 0,4 h 5 v 3 H 3 Z" fill="#808080"/>
 <path d="m13.964844 11c-.534081 0-.964844.430763-.964844.964844v.070312c0 .534081.430763.964844.964844.964844h3.035156v8h-3c-.554 0-1 .446-1 1s .446 1 1 1h8c .554 0 1-.446 1-1s-.446-1-1-1h-3v-8h3.035156c.534081 0 .964844-.430763.964844-.964844v-.070312c0-.534081-.430763-.964844-.964844-.964844z" fill="#4d82b8"/>
</svg>
